src/assets/icons/rules.svg

<svg width="24" height="24" viewBox="0 0 24 24" fill="none" xmlns="http://www.w3.org/2000/svg"><path d="M12 1.99902C17.5237 1.99902 22.0015 6.47687 22.0015 12.0006C22.0015 17.5243 17.5237 22.0021 12 22.0021C6.47629 22.0021 1.99844 17.5243 1.99844 12.0006C1.99844 6.47687 6.47629 1.99902 12 1.99902ZM12 3.49902C7.30472 3.49902 3.49844 7.3053 3.49844 12.0006C3.49844 16.6959 7.30472 20.5021 12 20.5021C16.6953 20.5021 20.5015 16.6959 20.5015 12.0006C20.5015 7.3053 16.6953 3.49902 12 3.49902ZM11.9964 10.4996C12.376 10.4994 12.69 10.7813 12.7399 11.1473L12.7468 11.2491L12.7504 16.7507C12.7507 17.1649 12.4151 17.5009 12.0009 17.5012C11.6212 17.5014 11.3073 17.2195 11.2574 16.8535L11.2504 16.7517L11.2468 11.2501C11.2466 10.8359 11.5821 10.4999 11.9964 10.4996ZM12.0004 7.00184C12.552 7.00184 12.9991 7.44896 12.9991 8.0005C12.9991 8.55205 12.552 8.99917 12.0004 8.99917C11.4489 8.99917 11.0018 8.55205 11.0018 8.0005C11.0018 7.44896 11.4489 7.00184 12.0004 7.00184Z" fill="currentColor"></path></svg>

<svg xmlns="http://www.w3.org/2000/svg" width="24" height="24" fill="none"><path fill="currentColor" d="M12 1.999c5.524 0 10.002 4.478 10.002 10.002 0 5.523-4.478 10.001-10.002 10.001-5.524 0-10.002-4.478-10.002-10.001C1.998 6.477 6.476 1.999 12 1.999Zm0 1.5a8.502 8.502 0 1 0 0 17.003A8.502 8.502 0 0 0 12 3.5Zm-.004 7a.75.75 0 0 1 .744.648l.007.102.003 5.502a.75.75 0 0 1-1.493.102l-.007-.101-.003-5.502a.75.75 0 0 1 .75-.75ZM12 7.003a.999.999 0 1 1 0 1.997.999.999 0 0 1 0-1.997Z"/></svg>
